X:1
T:Title
%%score { 1 | 2 }
L:1/8
Q:1/4=100
M:2/4
K:F
V:1 treble nm="Grand Piano"
V:2 bass 
V:1
 AA AA | c2 A2 | [EG]2 [Ec]2 | A2 F2 | AA AA | c2 A2 | G2 =B2 | [Ec]4 | [GB][FA] [EG]F | EF [EG]2 | %10
 [Ec][GB] [FA][EG] | [FA][GB] [Ac]2 | AA AA | [Ac]2 [FA]2 | [EG]2 [Ec]2 | F4 |] %16
V:2
 [F,CF][F,CF] [F,CF][F,CF] | [F,A,F]2 [F,CF]2 | [C,C]2 [C,C]2 | [F,CF]2 [F,A,C]2 | %4
 [F,CF][F,CF] [F,CF][F,CF] | [F,A,F]2 [F,CF]2 | [G,CE]2 [G,F]2 | [C,G,]4 | %8
 [C,C][C,C] [C,B,][C,A,] | [C,G,C][C,A,C] [C,C]2 | [C,C][C,C] [C,C][C,C] | [F,C][F,C] [F,C]2 | %12
 [F,CF][F,CF] [F,CF][F,CF] | [F,C]2 [F,C]2 | [C,C]2 [C,B,]2 | [F,A,]4 |] %16

